tools/download-figma-icons/icons/outlined-medium/oil-heating.svg

<svg width="24" height="24" viewBox="0 0 24 24" fill="none" xmlns="http://www.w3.org/2000/svg">
<path d="M23.403 11.9888C23.403 8.55485 20.8238 5.72074 17.5023 5.30088V4.35617C18.372 4.04127 19.0018 3.22403 19.0018 2.24933C19.0018 1.01222 17.9897 4.13869e-05 16.7526 4.13869e-05H3.24929C2.01218 -0.00745626 1 1.00473 1 2.24184C1 3.21653 1.6298 4.04127 2.49953 4.35617V9.88194C1.6298 10.1893 1 11.0141 1 11.9963C1 12.9785 1.6298 13.7957 2.49953 14.1106V19.6364C1.6298 19.9438 1 20.7685 1 21.7507C1 22.9878 2.01218 24 3.24929 24H16.7451C17.9822 24 18.9943 22.9878 18.9943 21.7507C18.9943 20.776 18.3645 19.9513 17.4948 19.6364V18.6917C20.8163 18.2718 23.3955 15.4377 23.3955 12.0038L23.403 11.9888ZM4.00656 14.2381H10.3046C11.1668 16.6598 13.3636 18.4517 16.0028 18.7067V19.4864H3.99906V14.2381H4.00656ZM4.00656 4.49113H16.0028V5.27088C13.3561 5.5258 11.1593 7.31774 10.2971 9.73948H4.00656V4.49113ZM21.9034 11.9888C21.9034 14.8829 19.5492 17.2371 16.6551 17.2371C13.761 17.2371 11.4067 14.8829 11.4067 11.9888C11.4067 9.09468 13.761 6.74042 16.6551 6.74042C19.5492 6.74042 21.9034 9.09468 21.9034 11.9888ZM3.24929 1.49207H16.7451C17.1574 1.49207 17.4948 1.82947 17.4948 2.24184C17.4948 2.65421 17.1574 2.9916 16.7451 2.9916H3.24929C2.83692 2.9916 2.49953 2.65421 2.49953 2.24184C2.49953 1.82947 2.83692 1.49207 3.24929 1.49207ZM3.24929 11.239H9.94469C9.9147 11.4864 9.8997 11.7339 9.8997 11.9888C9.8997 12.2437 9.9147 12.4911 9.94469 12.7385H3.24929C2.83692 12.7385 2.49953 12.4011 2.49953 11.9888C2.49953 11.5764 2.83692 11.239 3.24929 11.239ZM16.7451 22.4855H3.24929C2.83692 22.4855 2.49953 22.1481 2.49953 21.7357C2.49953 21.3233 2.83692 20.9859 3.24929 20.9859H16.7451C17.1574 20.9859 17.4948 21.3233 17.4948 21.7357C17.4948 22.1481 17.1574 22.4855 16.7451 22.4855Z" fill="black"/>
<path d="M15.8678 8.98921C15.5304 10.0839 15.1405 10.6312 14.7956 11.1185C14.4207 11.6434 14.0684 12.1457 14.0684 12.993C14.0684 14.455 15.268 15.6396 16.7525 15.6396C18.237 15.6396 19.4292 14.455 19.4292 12.993C19.4292 12.1457 19.0768 11.6509 18.7019 11.1185C18.357 10.6312 17.9671 10.0839 17.6297 8.98921C17.5098 8.59933 17.1574 8.33691 16.7525 8.33691C16.3476 8.33691 15.9878 8.59933 15.8678 8.98921ZM17.4798 11.9883C17.8172 12.4606 17.9296 12.6406 17.9296 12.993C17.9296 13.6303 17.3973 14.1401 16.7525 14.1401C16.1077 14.1401 15.5679 13.6228 15.5679 12.993C15.5679 12.6406 15.6804 12.4606 16.0177 11.9883C16.2277 11.6884 16.4901 11.321 16.745 10.8111C16.9999 11.321 17.2624 11.6809 17.4723 11.9883H17.4798Z" fill="black"/>
</svg>

<svg xmlns="http://www.w3.org/2000/svg" width="24" height="24" fill="none" viewBox="0 0 24 24"><path fill="currentColor" d="M23.403 11.989c0-3.434-2.58-6.268-5.9-6.688v-.945a2.25 2.25 0 0 0 1.499-2.107A2.256 2.256 0 0 0 16.752 0H3.25A2.245 2.245 0 0 0 1 2.242c0 .975.63 1.8 1.5 2.114v5.526A2.24 2.24 0 0 0 1 11.996c0 .982.63 1.8 1.5 2.115v5.525A2.24 2.24 0 0 0 1 21.751 2.256 2.256 0 0 0 3.25 24h13.495a2.256 2.256 0 0 0 2.25-2.25c0-.974-.63-1.799-1.5-2.114v-.944c3.321-.42 5.9-3.254 5.9-6.688zm-19.396 2.25h6.298c.862 2.42 3.059 4.213 5.698 4.468v.78H3.999v-5.249zm0-9.748h11.996v.78c-2.647.255-4.844 2.047-5.706 4.468h-6.29zm17.896 7.498a5.254 5.254 0 0 1-5.248 5.248 5.254 5.254 0 0 1-5.248-5.248 5.254 5.254 0 0 1 5.248-5.249 5.254 5.254 0 0 1 5.248 5.249M3.25 1.492h13.496c.412 0 .75.337.75.75 0 .412-.338.75-.75.75H3.25a.75.75 0 0 1-.75-.75c0-.413.338-.75.75-.75m0 9.747h6.696a6.2 6.2 0 0 0 0 1.5H3.249a.75.75 0 0 1-.75-.75c0-.413.338-.75.75-.75m13.496 11.246H3.25a.75.75 0 0 1-.75-.75c0-.412.338-.75.75-.75h13.496c.412 0 .75.338.75.75 0 .413-.338.75-.75.75"/><path fill="currentColor" d="M15.868 8.99c-.338 1.094-.728 1.641-1.072 2.128-.375.525-.728 1.028-.728 1.875 0 1.462 1.2 2.647 2.685 2.647 1.484 0 2.676-1.185 2.676-2.647 0-.847-.352-1.342-.727-1.875-.345-.487-.735-1.034-1.072-2.129a.915.915 0 0 0-.877-.652.925.925 0 0 0-.885.652m1.612 2.998c.337.473.45.653.45 1.005 0 .637-.533 1.147-1.177 1.147-.645 0-1.185-.517-1.185-1.147 0-.352.112-.532.45-1.005.21-.3.472-.667.727-1.177.255.51.517.87.727 1.177z"/></svg>
